assets/Chart increasing with yen/Flat/chart_increasing_with_yen_flat.svg

<svg width="32" height="32" viewBox="0 0 32 32" fill="none" xmlns="http://www.w3.org/2000/svg">
<path d="M2 6C2 3.79086 3.79086 2 6 2H26C28.2091 2 30 3.79086 30 6V26C30 28.2091 28.2091 30 26 30H6C3.79086 30 2 28.2091 2 26V6Z" fill="#00D26A"/>
<path d="M5.46114 5.11869C5.82707 4.92462 6.28105 5.06395 6.47512 5.42989L8.54254 9.32824L10.7492 5.41304C10.9525 5.05219 11.4099 4.92453 11.7708 5.1279C12.1316 5.33128 12.2593 5.78867 12.0559 6.14952L9.65404 10.4112H11.4025C11.8167 10.4112 12.1525 10.7469 12.1525 11.1612C12.1525 11.5754 11.8167 11.9112 11.4025 11.9112H9.27253V12.8612H11.4025C11.8167 12.8612 12.1525 13.197 12.1525 13.6112C12.1525 14.0254 11.8167 14.3612 11.4025 14.3612H9.27253V15.7613C9.27253 16.1755 8.93675 16.5113 8.52253 16.5113C8.10832 16.5113 7.77253 16.1755 7.77253 15.7613V14.3612H5.95253C5.53831 14.3612 5.20253 14.0254 5.20253 13.6112C5.20253 13.197 5.53831 12.8612 5.95253 12.8612H7.77253V11.9112H5.95253C5.53831 11.9112 5.20253 11.5754 5.20253 11.1612C5.20253 10.7469 5.53831 10.4112 5.95253 10.4112H7.41896L5.14994 6.13267C4.95587 5.76673 5.0952 5.31276 5.46114 5.11869ZM26.7891 14.4453C27.082 14.1524 27.082 13.6775 26.7891 13.3846C26.4962 13.0917 26.0213 13.0917 25.7284 13.3846L15.3045 23.8086C15.2066 23.9065 15.0478 23.9062 14.9503 23.8079L12.3332 21.1705C11.6506 20.4826 10.5389 20.4805 9.85361 21.1657L5.43155 25.5878C5.13866 25.8807 5.13866 26.3556 5.43155 26.6485C5.72444 26.9414 6.19932 26.9414 6.49221 26.6485L10.9143 22.2264C11.0122 22.1285 11.171 22.1288 11.2685 22.2271L13.8856 24.8644C14.5682 25.5524 15.6799 25.5545 16.3652 24.8692L26.7891 14.4453Z" fill="#F4F4F4"/>
</svg>

<svg xmlns="http://www.w3.org/2000/svg" width="32" height="32" fill="none"><path fill="#00D26A" d="M2 6a4 4 0 0 1 4-4h20a4 4 0 0 1 4 4v20a4 4 0 0 1-4 4H6a4 4 0 0 1-4-4V6Z"/><path fill="#F4F4F4" d="M5.461 5.119a.75.75 0 0 1 1.014.31l2.068 3.9 2.206-3.916a.75.75 0 1 1 1.307.737L9.654 10.41h1.748a.75.75 0 1 1 0 1.5h-2.13v.95h2.13a.75.75 0 0 1 0 1.5h-2.13v1.4a.75.75 0 0 1-1.5 0v-1.4h-1.82a.75.75 0 0 1 0-1.5h1.82v-.95h-1.82a.75.75 0 0 1 0-1.5H7.42l-2.27-4.278a.75.75 0 0 1 .312-1.014Zm21.328 9.326a.75.75 0 0 0-1.06-1.06L15.304 23.809a.25.25 0 0 1-.355-.001l-2.617-2.637a1.75 1.75 0 0 0-2.48-.005l-4.421 4.422a.75.75 0 0 0 1.06 1.06l4.422-4.422a.25.25 0 0 1 .354.001l2.618 2.637a1.75 1.75 0 0 0 2.48.005l10.423-10.424Z"/></svg>
